X:27
T:The Frost Is All Over
T:The Mist Of Clonmel
M:6/8
L:1/8
R:jig
K:D
A | def edB | AFD E2 D | FAA AFA | Bee edB |
def edB | AFD E2 D | FAA AFA | Bdc d2 ::
e | f3 afd | g3 bag | f3 afd | gfg efg |
f3 afd | g3 bag | fga efg | fdc d2 :|
